;FLAVOR:Marlin
;TIME:14467
;Filament used: 26.228m
;Layer height: 0.3
;MINX:20.702
;MINY:18.925
;MINZ:0.3
;MAXX:195.271
;MAXY:193.494
;MAXZ:15.9
;Generated with Creality Slicer 4.8.2-205
M140 S75
M105
M190 S75
M104 S200
M105
M109 S200
M82 ;absolute extrusion mode

G28 ;Home

G92 E0 ;Reset Extruder
G1 Z2.0 F3000 ;Move Z Axis up
G1 X10.1 Y20 Z0.28 F5000.0 ;Move to start position
G1 X10.1 Y200.0 Z0.28 F1500.0 E15 ;Draw the first line
G1 X10.4 Y200.0 Z0.28 F5000.0 ;Move to side a little
G1 X10.4 Y20 Z0.28 F1500.0 E30 ;Draw the second line
G92 E0 ;Reset Extruder
G1 Z2.0 F3000 ;Move Z Axis up

G92 E0
G92 E0
G1 F2400 E-3
;LAYER_COUNT:53
;LAYER:0
M107
G0 F6000 X84.835 Y82.934 Z0.3
;TYPE:SKIRT
G1 F2400 E0
G1 F1200 X85.014 Y82.887 E0.00923
G1 X85.224 Y82.968 E0.02046
G1 X85.325 Y83.11 E0.02916
G1 X85.33 Y83.333 E0.04028
G1 X85.196 Y83.511 E0.0514
G1 X85.028 Y83.568 E0.06025
G1 X84.81 Y83.507 E0.07154
G1 X84.678 Y83.323 E0.08284
G1 X84.693 Y83.092 E0.09439
G1 X84.835 Y82.934 E0.10499
G0 F6000 X84.65 Y82.578
G1 F1200 X84.9 Y82.494 E0.11815
G1 X85.02 Y82.486 E0.12415
G1 X85.268 Y82.533 E0.13674
G1 X85.484 Y82.662 E0.14929
G1 X85.646 Y82.853 E0.16179
G1 X85.736 Y83.096 E0.17472
G1 X85.741 Y83.336 E0.18669
G1 X85.663 Y83.571 E0.19904
G1 X85.507 Y83.776 E0.2119
G1 X85.297 Y83.911 E0.22435
G1 X85.056 Y83.968 E0.23671
G1 X84.803 Y83.943 E0.24939
G1 X84.582 Y83.837 E0.26162
G1 X84.401 Y83.66 E0.27425
G1 X84.291 Y83.431 E0.28692
G1 X84.265 Y83.177 E0.29966
G1 X84.321 Y82.94 E0.31181
G1 X84.458 Y82.727 E0.32445
G1 X84.65 Y82.578 E0.33657
G0 F6000 X84.463 Y82.223
G1 F1200 X84.836 Y82.098 E0.3562
G1 X85.032 Y82.085 E0.366
G1 X85.407 Y82.156 E0.38504
G1 X85.746 Y82.358 E0.40473
G1 X85.991 Y82.647 E0.42363
G1 X86.13 Y83.02 E0.44349
G1 X86.137 Y83.395 E0.4622
G1 X86.019 Y83.756 E0.48115
G1 X85.776 Y84.074 E0.50112
G1 X85.451 Y84.281 E0.52034
G1 X85.078 Y84.369 E0.53946
G1 X84.694 Y84.329 E0.55872
G1 X84.346 Y84.162 E0.57798
G1 X84.073 Y83.89 E0.5972
G1 X83.906 Y83.543 E0.61642
G1 X83.864 Y83.157 E0.63579
G1 X83.952 Y82.782 E0.655
G1 X84.159 Y82.459 E0.67414
G1 X84.463 Y82.223 E0.69335
G0 F6000 X84.274 Y81.868
G1 F1200 X84.521 Y81.761 E0.70677
G1 X84.777 Y81.701 E0.71989
G1 X85.044 Y81.683 E0.73324
G1 X85.298 Y81.711 E0.74599
G1 X85.552 Y81.782 E0.75915
G1 X85.785 Y81.894 E0.77205
G1 X86.002 Y82.048 E0.78532
G1 X86.183 Y82.229 E0.79809
G1 X86.338 Y82.447 E0.81144
G1 X86.451 Y82.685 E0.82458
G1 X86.523 Y82.937 E0.83766
G1 X86.551 Y83.193 E0.85051
G1 X86.535 Y83.449 E0.8633
G1 X86.473 Y83.712 E0.87678
G1 X86.372 Y83.948 E0.88959
G1 X86.227 Y84.173 E0.90295
G1 X86.049 Y84.369 E0.91615
G1 X85.851 Y84.522 E0.92864
G1 X85.607 Y84.651 E0.94241
G1 X85.364 Y84.731 E0.95517
G1 X85.106 Y84.77 E0.96819
G1 X84.838 Y84.764 E0.98156
G1 X84.588 Y84.716 E0.99426
G1 X84.34 Y84.622 E1.0075
G1 X84.118 Y84.492 E1.02033
G1 X83.907 Y84.315 E1.03407
G1 X83.746 Y84.124 E1.04653
G1 X83.61 Y83.891 E1.05999
G1 X83.519 Y83.651 E1.0728
G1 X83.469 Y83.392 E1.08596
G1 X83.463 Y83.129 E1.09908
G1 X83.502 Y82.87 E1.11215
G1 X83.583 Y82.624 E1.12507
G1 X83.708 Y82.388 E1.1384
G1 X83.866 Y82.184 E1.15127
G1 X84.061 Y82.005 E1.16447
G1 X84.274 Y81.868 E1.17711
G0 F6000 X84.087 Y81.514
G1 F1200 X84.393 Y81.381 E1.19376
G1 X84.718 Y81.304 E1.21042
G1 X85.049 Y81.282 E1.22697
G1 X85.378 Y81.318 E1.24348
G1 X85.696 Y81.407 E1.25996
G1 X85.984 Y81.546 E1.27591
G1 X86.264 Y81.744 E1.29302
G1 X86.489 Y81.969 E1.30889
G1 X86.684 Y82.242 E1.32563
G1 X86.828 Y82.545 E1.34237
G1 X86.918 Y82.861 E1.35876
G1 X86.952 Y83.179 E1.37472
G1 X86.931 Y83.514 E1.39146
G1 X86.854 Y83.839 E1.40813
G1 X86.726 Y84.137 E1.42431
G1 X86.549 Y84.413 E1.44066
G1 X86.318 Y84.666 E1.45776
G1 X86.066 Y84.861 E1.47365
G1 X85.766 Y85.02 E1.49059
G1 X85.46 Y85.12 E1.50665
G1 X85.128 Y85.171 E1.52341
G1 X84.796 Y85.163 E1.53998
G1 X84.479 Y85.103 E1.55608
G1 X84.165 Y84.984 E1.57283
G1 X83.886 Y84.82 E1.58897
G1 X83.625 Y84.601 E1.60597
G1 X83.418 Y84.354 E1.62205
G1 X83.247 Y84.063 E1.63889
G1 X83.132 Y83.759 E1.6551
G1 X83.07 Y83.437 E1.67146
G1 X83.062 Y83.106 E1.68798
G1 X83.113 Y82.774 E1.70474
G1 X83.213 Y82.47 E1.72071
G1 X83.372 Y82.168 E1.73773
G1 X83.57 Y81.913 E1.75384
G1 X83.815 Y81.688 E1.77044
G1 X84.087 Y81.514 E1.78655
G0 F6000 X88.525 Y86.86
G1 F1200 X88.766 Y86.637 E1.80293
G1 X89.029 Y86.468 E1.81852
G1 X89.352 Y86.328 E1.83609
G1 X89.665 Y86.254 E1.85213
G1 X89.999 Y86.232 E1.86883
G1 X90.319 Y86.267 E1.88489
G1 X90.646 Y86.359 E1.90184
G1 X90.94 Y86.499 E1.91809
G1 X91.209 Y86.69 E1.93455
G1 X91.444 Y86.926 E1.95116
G1 X91.636 Y87.197 E1.96773
G1 X91.772 Y87.482 E1.98349
G1 X91.866 Y87.815 E2.00075
G1 X91.901 Y88.13 E2.01656
G1 X91.88 Y88.467 E2.03341
G1 X91.804 Y88.786 E2.04977
G1 X91.677 Y89.082 E2.06584
G1 X91.494 Y89.37 E2.08286
G1 X91.268 Y89.616 E2.09953
G1 X91.017 Y89.81 E2.11535
G1 X90.713 Y89.97 E2.13249
G1 X90.41 Y90.07 E2.14841
G1 X90.078 Y90.121 E2.16517
G1 X89.746 Y90.112 E2.18174
G1 X89.425 Y90.051 E2.19804
G1 X89.118 Y89.935 E2.21441
G1 X88.834 Y89.768 E2.23085
G1 X88.577 Y89.552 E2.2476
G1 X88.364 Y89.299 E2.2641
G1 X88.196 Y89.014 E2.2806
G1 X88.082 Y88.709 E2.29685
G1 X88.021 Y88.391 E2.313
G1 X88.012 Y88.055 E2.32977
G1 X88.063 Y87.723 E2.34653
G1 X88.164 Y87.416 E2.36265
G1 X88.317 Y87.127 E2.37897
G1 X88.525 Y86.86 E2.39585
G0 F6000 X88.819 Y87.132
G1 F1200 X89.012 Y86.954 E2.40895
G1 X89.218 Y86.822 E2.42116
G1 X89.479 Y86.709 E2.43535
G1 X89.724 Y86.651 E2.44791
G1 X89.993 Y86.633 E2.46136
G1 X90.239 Y86.66 E2.4737
G1 X90.505 Y86.735 E2.48749
G1 X90.738 Y86.846 E2.50037
G1 X90.95 Y86.996 E2.51333
G1 X91.137 Y87.184 E2.52655
G1 X91.288 Y87.396 E2.53954
G1 X91.397 Y87.626 E2.55224
G1 X91.473 Y87.894 E2.56614
G1 X91.5 Y88.141 E2.57853
G1 X91.483 Y88.406 E2.59178
G1 X91.423 Y88.659 E2.60475
G1 X91.321 Y88.897 E2.61767
G1 X91.176 Y89.124 E2.63111
G1 X90.999 Y89.317 E2.64417
G1 X90.794 Y89.476 E2.65712
G1 X90.559 Y89.6 E2.67037
G1 X90.314 Y89.681 E2.68325
G1 X90.056 Y89.72 E2.69627
G1 X89.789 Y89.713 E2.70959
G1 X89.532 Y89.664 E2.72264
G1 X89.292 Y89.573 E2.73545
G1 X89.064 Y89.44 E2.74862
G1 X88.861 Y89.268 E2.76189
G1 X88.694 Y89.071 E2.77478
G1 X88.559 Y88.841 E2.78808
G1 X88.468 Y88.599 E2.80098
G1 X88.42 Y88.348 E2.81373
G1 X88.413 Y88.077 E2.82726
G1 X88.452 Y87.819 E2.84027
G1 X88.533 Y87.572 E2.85324
G1 X88.655 Y87.344 E2.86614
G1 X88.819 Y87.132 E2.87951
G0 F6000 X89.115 Y87.403
G1 F1200 X89.409 Y87.174 E2.89811
G1 X89.783 Y87.048 E2.9178
G1 X89.981 Y87.035 E2.9277
G1 X90.365 Y87.111 E2.94723
G1 X90.691 Y87.304 E2.96613
G1 X90.943 Y87.603 E2.98563
G1 X91.078 Y87.969 E3.0051
G1 X91.086 Y88.346 E3.02391
G1 X90.966 Y88.711 E3.04308
G1 X90.728 Y89.021 E3.06258
G1 X90.401 Y89.231 E3.08197
G1 X90.029 Y89.319 E3.10104
G1 X89.64 Y89.277 E3.12056
G1 X89.298 Y89.113 E3.13948
G1 X89.022 Y88.839 E3.15888
G1 X88.855 Y88.493 E3.17805
G1 X88.814 Y88.105 E3.19752
G1 X88.903 Y87.728 E3.21684
G1 X89.115 Y87.403 E3.2362
G0 F6000 X89.41 Y87.675
G1 F1200 X89.598 Y87.528 E3.24811
G1 X89.841 Y87.445 E3.26092
G1 X89.97 Y87.436 E3.26737
G1 X90.221 Y87.486 E3.28014
G1 X90.432 Y87.61 E3.29235
G1 X90.596 Y87.805 E3.30506
G1 X90.684 Y88.042 E3.31767
G1 X90.69 Y88.283 E3.3297
G1 X90.616 Y88.514 E3.3418
G1 X90.454 Y88.729 E3.35523
G1 X90.247 Y88.861 E3.36748
G1 X90.007 Y88.918 E3.37979
G1 X89.749 Y88.891 E3.39273
G1 X89.528 Y88.785 E3.40496
G1 X89.347 Y88.603 E3.41776
G1 X89.242 Y88.384 E3.42988
G1 X89.215 Y88.127 E3.44277
G1 X89.272 Y87.885 E3.45518
G1 X89.41 Y87.675 E3.46771
G0 F6000 X89.705 Y87.948
G1 F1200 X89.906 Y87.841 E3.47907
G1 X90.173 Y87.916 E3.49291
G1 X90.271 Y88.054 E3.50135
G1 X90.293 Y88.225 E3.50995
G1 X90.185 Y88.43 E3.52151
G1 X89.973 Y88.518 E3.53297
G1 X89.758 Y88.455 E3.54414
G1 X89.628 Y88.275 E3.55522
G1 X89.625 Y88.097 E3.5641
G1 X89.705 Y87.948 E3.57254
G0 F6000 X84.741 Y114.891
G1 F1200 X85.422 Y114.965 E3.60672
G1 X86.087 Y115.153 E3.64119
G1 X86.693 Y115.442 E3.67469
G1 X87.263 Y115.846 E3.70954
G1 X87.742 Y116.325 E3.74334
G1 X88.147 Y116.896 E3.77827
G1 X88.436 Y117.502 E3.81176
G1 X88.624 Y118.168 E3.84629
G1 X88.698 Y118.843 E3.88016
G1 X88.653 Y119.534 E3.91471
G1 X88.494 Y120.205 E3.94911
G1 X88.22 Y120.844 E3.9838
G1 X87.852 Y121.415 E4.01769
G1 X87.392 Y121.916 E4.05163
G1 X86.856 Y122.331 E4.08544
G1 X86.233 Y122.661 E4.12062
G1 X85.591 Y122.872 E4.15433
G1 X84.908 Y122.976 E4.1888
G1 X84.215 Y122.96 E4.22338
G1 X83.556 Y122.833 E4.25687
G1 X82.901 Y122.587 E4.29177
G1 X82.324 Y122.248 E4.32516
G1 X81.791 Y121.798 E4.35996
G1 X81.341 Y121.265 E4.39476
G1 X81.002 Y120.688 E4.42815
G1 X80.756 Y120.033 E4.46306
G1 X80.629 Y119.374 E4.49654
G1 X80.613 Y118.681 E4.53112
G1 X80.717 Y117.998 E4.56559
G1 X80.928 Y117.356 E4.59931
G1 X81.258 Y116.733 E4.63448
G1 X81.673 Y116.197 E4.6683
G1 X82.174 Y115.737 E4.70223
G1 X82.745 Y115.369 E4.73612
G1 X83.384 Y115.095 E4.77081
G1 X84.055 Y114.936 E4.80521
G1 X84.741 Y114.891 E4.83951
G0 F6000 X84.731 Y115.635
G1 F1200 X84.695 Y115.635 E4.84131
G1 X84.18 Y115.675 E4.86708
G1 X84.15 Y115.679 E4.86859
G1 X83.636 Y115.799 E4.89492
G1 X83.604 Y115.809 E4.89659
G1 X83.125 Y116.008 E4.92247
G1 X83.092 Y116.026 E4.92435
G1 X82.651 Y116.316 E4.95068
G1 X82.628 Y116.334 E4.95214
G1 X82.238 Y116.683 E4.97825
G1 X82.213 Y116.709 E4.98005
G1 X81.905 Y117.105 E5.00507
G1 X81.887 Y117.132 E5.00669
G1 X81.631 Y117.603 E5.03344
G1 X81.617 Y117.636 E5.03523
G1 X81.452 Y118.132 E5.06131
G1 X81.445 Y118.163 E5.06289
G1 X81.363 Y118.674 E5.08871
G1 X81.36 Y118.709 E5.09046
G1 X81.368 Y119.308 E5.12035
G1 X81.373 Y119.348 E5.12236
G1 X81.488 Y119.868 E5.14893
G1 X81.496 Y119.896 E5.15038
G1 X81.661 Y120.334 E5.17373
G1 X81.674 Y120.362 E5.17527
G1 X81.933 Y120.815 E5.20131
G1 X81.954 Y120.845 E5.20314
G1 X82.313 Y121.271 E5.23093
G1 X82.338 Y121.296 E5.23269
G1 X82.733 Y121.624 E5.25831
G1 X82.76 Y121.643 E5.25996
G1 X83.219 Y121.91 E5.28645
G1 X83.249 Y121.924 E5.2881
G1 X83.701 Y122.095 E5.31221
G1 X83.727 Y122.103 E5.31357
G1 X84.221 Y122.216 E5.33885
G1 X84.263 Y122.221 E5.34096
G1 X84.895 Y122.229 E5.37249
G1 X84.933 Y122.226 E5.37439
G1 X85.455 Y122.132 E5.40086
G1 X85.916 Y121.99 E5.42492
G1 X85.95 Y121.976 E5.42676
G1 X86.437 Y121.719 E5.45423
G1 X86.47 Y121.697 E5.45621
G1 X86.871 Y121.37 E5.48202
G1 X87.277 Y120.943 E5.51142
G1 X87.303 Y120.91 E5.51351
G1 X87.577 Y120.46 E5.5398
G1 X87.591 Y120.432 E5.54136
G1 X87.778 Y119.979 E5.56581
G1 X87.787 Y119.951 E5.56728
G1 X87.914 Y119.433 E5.59389
G1 X87.92 Y119.396 E5.59576
G1 X87.949 Y118.858 E5.62263
G1 X87.948 Y118.825 E5.62428
G1 X87.89 Y118.308 E5.65024
G1 X87.883 Y118.274 E5.65197
G1 X87.748 Y117.814 E5.67589
G1 X87.738 Y117.786 E5.67737
G1 X87.502 Y117.273 E5.70554
G1 X87.482 Y117.24 E5.70747
G1 X87.186 Y116.829 E5.73274
G1 X87.166 Y116.805 E5.73429
G1 X86.779 Y116.417 E5.76163
G1 X86.753 Y116.395 E5.76333
G1 X86.352 Y116.11 E5.78788
G1 X86.323 Y116.093 E5.78956
G1 X85.813 Y115.846 E5.81783
G1 X85.779 Y115.833 E5.81964
G1 X85.278 Y115.695 E5.84557
G1 X85.246 Y115.689 E5.84719
G1 X84.731 Y115.635 E5.87303
G0 F6000 X94.66 Y125.542
G1 F1200 X95.346 Y125.498 E5.90732
G1 X96.028 Y125.572 E5.94155
G1 X96.691 Y125.759 E5.97591
G1 X97.309 Y126.054 E6.01008
G1 X97.876 Y126.455 E6.04473
G1 X98.114 Y126.675 E6.0609
G1 X98.336 Y126.915 E6.07721
G1 X98.751 Y127.499 E6.11295
G1 X99.042 Y128.109 E6.14667
G1 X99.231 Y128.772 E6.18106
G1 X99.303 Y129.455 E6.21533
G1 X99.26 Y130.144 E6.24977
G1 X99.102 Y130.811 E6.28397
G1 X98.83 Y131.444 E6.31834
G1 X98.457 Y132.023 E6.3527
G1 X97.998 Y132.524 E6.3866
G1 X97.463 Y132.938 E6.42035
G1 X96.839 Y133.268 E6.45557
G1 X96.198 Y133.479 E6.48923
G1 X95.516 Y133.583 E6.52365
G1 X94.826 Y133.567 E6.55809
G1 X94.157 Y133.438 E6.59208
G1 X93.51 Y133.194 E6.62657
G1 X92.924 Y132.85 E6.66048
G1 X92.397 Y132.405 E6.69489
G1 X91.953 Y131.88 E6.72919
G1 X91.606 Y131.289 E6.76338
G1 X91.364 Y130.646 E6.79766
G1 X91.235 Y129.973 E6.83185
G1 X91.22 Y129.284 E6.86623
G1 X91.322 Y128.607 E6.90039
G1 X91.535 Y127.961 E6.93432
G1 X91.864 Y127.339 E6.96943
G1 X92.278 Y126.805 E7.00314
G1 X92.779 Y126.344 E7.0371
G1 X93.353 Y125.975 E7.07115
G1 X93.995 Y125.7 E7.10599
G1 X94.66 Y125.542 E7.14009
G0 F6000 X94.745 Y126.284
G1 F1200 X94.229 Y126.409 E7.16658
G1 X94.194 Y126.42 E7.16841
G1 X93.696 Y126.643 E7.19563
G1 X93.672 Y126.656 E7.19699
G1 X93.287 Y126.897 E7.21965
G1 X93.259 Y126.919 E7.22143
G1 X92.848 Y127.291 E7.24909
G1 X92.824 Y127.317 E7.25085
G1 X92.511 Y127.723 E7.27643
G1 X92.493 Y127.749 E7.27801
G1 X92.232 Y128.227 E7.30518
G1 X92.218 Y128.26 E7.30697
G1 X92.062 Y128.728 E7.33158
G1 X92.055 Y128.757 E7.33307
G1 X91.97 Y129.257 E7.35837
G1 X91.967 Y129.294 E7.36022
G1 X91.975 Y129.929 E7.3919
G1 X91.98 Y129.971 E7.39401
G1 X92.09 Y130.445 E7.41829
G1 X92.263 Y130.932 E7.44407
G1 X92.278 Y130.966 E7.44593
G1 X92.55 Y131.43 E7.47276
G1 X92.57 Y131.458 E7.47448
G1 X92.92 Y131.874 E7.5016
G1 X92.944 Y131.897 E7.50326
G1 X93.323 Y132.219 E7.52807
G1 X93.35 Y132.239 E7.52975
G1 X93.81 Y132.51 E7.55638
G1 X93.844 Y132.526 E7.55826
G1 X94.387 Y132.723 E7.58708
G1 X94.421 Y132.732 E7.58883
G1 X94.928 Y132.82 E7.6145
G1 X94.955 Y132.823 E7.61586
G1 X95.441 Y132.839 E7.64012
G1 X95.479 Y132.837 E7.64202
G1 X95.996 Y132.756 E7.66813
G1 X96.507 Y132.603 E7.69474
G1 X96.545 Y132.587 E7.69679
G1 X97.059 Y132.304 E7.72607
G1 X97.085 Y132.287 E7.72762
G1 X97.475 Y131.985 E7.75223
G1 X97.499 Y131.964 E7.75382
G1 X97.874 Y131.563 E7.78121
G1 X97.899 Y131.53 E7.78327
G1 X98.178 Y131.07 E7.81011
G1 X98.191 Y131.044 E7.81156
G1 X98.401 Y130.546 E7.83853
G1 X98.412 Y130.511 E7.84036
G1 X98.519 Y130.025 E7.86519
G1 X98.524 Y129.995 E7.8667
G1 X98.558 Y129.464 E7.89325
G1 X98.556 Y129.426 E7.89515
G1 X98.489 Y128.887 E7.92225
G1 X98.483 Y128.857 E7.92377
G1 X98.349 Y128.386 E7.9482
G1 X98.336 Y128.352 E7.95002
G1 X98.091 Y127.856 E7.97762
G1 X98.074 Y127.828 E7.97925
G1 X97.781 Y127.42 E8.00431
G1 X97.764 Y127.399 E8.00566
G1 X97.459 Y127.078 E8.02775
G1 X97.429 Y127.052 E8.02973
G1 X96.946 Y126.714 E8.05914
G1 X96.919 Y126.699 E8.06068
G1 X96.444 Y126.465 E8.0871
G1 X96.413 Y126.452 E8.08878
G1 X95.925 Y126.307 E8.11418
G1 X95.887 Y126.3 E8.11611
G1 X95.339 Y126.247 E8.14357
G1 X95.308 Y126.246 E8.14512
G1 X94.78 Y126.278 E8.17151
G1 X94.745 Y126.284 E8.17328
G1 F2400 E5.17328
G0 F6000 X124.58 Y122.927
G1 F2400 E8.17328
G1 F1200 X124.827 Y122.7 E8.19002
G1 X125.099 Y122.526 E8.20613
G1 X125.405 Y122.393 E8.22277
G1 X125.73 Y122.316 E8.23944
G1 X126.061 Y122.294 E8.25599
G1 X126.39 Y122.33 E8.2725
G1 X126.705 Y122.419 E8.28883
G1 X127.001 Y122.56 E8.30519
G1 X127.27 Y122.751 E8.32165
G1 X127.501 Y122.981 E8.33791
G1 X127.7 Y123.261 E8.35505
G1 X127.839 Y123.552 E8.37114
G1 X127.928 Y123.869 E8.38756
G1 X127.964 Y124.192 E8.40378
G1 X127.943 Y124.526 E8.42047
G1 X127.865 Y124.853 E8.43725
G1 X127.743 Y125.141 E8.45285
G1 X127.556 Y125.433 E8.47015
G1 X127.331 Y125.678 E8.48675
G1 X127.081 Y125.871 E8.5025
G1 X126.778 Y126.032 E8.51962
G1 X126.472 Y126.132 E8.53568
G1 X126.14 Y126.183 E8.55244
G1 X125.808 Y126.175 E8.56901
G1 X125.491 Y126.115 E8.5851
G1 X125.174 Y125.995 E8.60201
G1 X124.896 Y125.832 E8.61809
G1 X124.641 Y125.617 E8.63473
G1 X124.43 Y125.366 E8.65109
G1 X124.26 Y125.077 E8.66782
G1 X124.143 Y124.767 E8.68435
G1 X124.083 Y124.45 E8.70045
G1 X124.075 Y124.118 E8.71701
G1 X124.126 Y123.786 E8.73377
G1 X124.226 Y123.48 E8.74983
G1 X124.387 Y123.176 E8.767
G1 X124.58 Y122.927 E8.78271
G0 F6000 X124.879 Y123.195
G1 F1200 X125.073 Y123.017 E8.79585
G1 X125.286 Y122.88 E8.80848
